src/img/production/question.svg

<svg width="16" height="16" viewBox="0 0 16 16" fill="none" xmlns="http://www.w3.org/2000/svg">
<path id="Vector" d="M9.33333 13V11C9.33333 10.9028 9.30208 10.8229 9.23958 10.7604C9.17708 10.6979 9.09722 10.6667 9 10.6667H7C6.90278 10.6667 6.82292 10.6979 6.76042 10.7604C6.69792 10.8229 6.66667 10.9028 6.66667 11V13C6.66667 13.0972 6.69792 13.1771 6.76042 13.2396C6.82292 13.3021 6.90278 13.3333 7 13.3333H9C9.09722 13.3333 9.17708 13.3021 9.23958 13.2396C9.30208 13.1771 9.33333 13.0972 9.33333 13ZM12 6C12 5.38889 11.8073 4.82292 11.4219 4.30208C11.0365 3.78125 10.5556 3.37847 9.97917 3.09375C9.40278 2.80903 8.8125 2.66667 8.20833 2.66667C6.52083 2.66667 5.23264 3.40625 4.34375 4.88542C4.23958 5.05208 4.26736 5.19792 4.42708 5.32292L5.80208 6.36458C5.85069 6.40625 5.91667 6.42708 6 6.42708C6.11111 6.42708 6.19792 6.38542 6.26042 6.30208C6.62847 5.82986 6.92708 5.51042 7.15625 5.34375C7.39236 5.17708 7.69097 5.09375 8.05208 5.09375C8.38542 5.09375 8.68229 5.18403 8.94271 5.36458C9.20313 5.54514 9.33333 5.75 9.33333 5.97917C9.33333 6.24306 9.26389 6.45486 9.125 6.61458C8.98611 6.77431 8.75 6.93056 8.41667 7.08333C7.97917 7.27778 7.57813 7.57812 7.21354 7.98438C6.84896 8.39062 6.66667 8.82639 6.66667 9.29167V9.66667C6.66667 9.76389 6.69792 9.84375 6.76042 9.90625C6.82292 9.96875 6.90278 10 7 10H9C9.09722 10 9.17708 9.96875 9.23958 9.90625C9.30208 9.84375 9.33333 9.76389 9.33333 9.66667C9.33333 9.53472 9.40799 9.36285 9.55729 9.15104C9.7066 8.93924 9.89583 8.76736 10.125 8.63542C10.3472 8.51042 10.5174 8.41146 10.6354 8.33854C10.7535 8.26562 10.9132 8.1441 11.1146 7.97396C11.316 7.80382 11.4705 7.63715 11.5781 7.47396C11.6858 7.31076 11.783 7.10069 11.8698 6.84375C11.9566 6.58681 12 6.30556 12 6ZM16 8C16 9.45139 15.6424 10.7899 14.9271 12.0156C14.2118 13.2413 13.2413 14.2118 12.0156 14.9271C10.7899 15.6424 9.45139 16 8 16C6.54861 16 5.21007 15.6424 3.98438 14.9271C2.75868 14.2118 1.78819 13.2413 1.07292 12.0156C0.357639 10.7899 0 9.45139 0 8C0 6.54861 0.357639 5.21007 1.07292 3.98438C1.78819 2.75868 2.75868 1.78819 3.98438 1.07292C5.21007 0.357639 6.54861 0 8 0C9.45139 0 10.7899 0.357639 12.0156 1.07292C13.2413 1.78819 14.2118 2.75868 14.9271 3.98438C15.6424 5.21007 16 6.54861 16 8Z" fill="#868686" fill-opacity="0.5"/>
</svg>

<svg width="16" height="16" fill="none" xmlns="http://www.w3.org/2000/svg"><path id="Vector" d="M9.333 13v-2a.325.325 0 00-.093-.24.324.324 0 00-.24-.093H7a.324.324 0 00-.24.093.325.325 0 00-.093.24v2c0 .097.03.177.093.24a.324.324 0 00.24.093h2a.324.324 0 00.24-.093.325.325 0 00.093-.24zM12 6c0-.611-.193-1.177-.578-1.698a3.944 3.944 0 00-1.443-1.208 3.956 3.956 0 00-1.77-.427c-1.688 0-2.976.74-3.865 2.218-.104.167-.077.313.083.438l1.375 1.042A.294.294 0 006 6.427a.307.307 0 00.26-.125c.368-.472.667-.792.896-.958.236-.167.535-.25.896-.25.333 0 .63.09.89.27.261.181.391.386.391.615 0 .264-.07.476-.208.636-.139.16-.375.316-.708.468a3.568 3.568 0 00-1.203.901c-.365.407-.547.842-.547 1.308v.375c0 .097.03.177.093.24A.324.324 0 007 10h2a.324.324 0 00.24-.094.324.324 0 00.093-.24c0-.131.075-.303.224-.515.15-.212.339-.384.568-.516.222-.125.392-.224.51-.296a4.39 4.39 0 00.48-.365c.201-.17.355-.337.463-.5.108-.163.205-.373.292-.63S12 6.306 12 6zm4 2c0 1.451-.358 2.79-1.073 4.016a7.965 7.965 0 01-2.911 2.911A7.826 7.826 0 018 16a7.826 7.826 0 01-4.016-1.073 7.964 7.964 0 01-2.911-2.911A7.826 7.826 0 010 8c0-1.451.358-2.79 1.073-4.016a7.964 7.964 0 012.911-2.911A7.826 7.826 0 018 0c1.451 0 2.79.358 4.016 1.073a7.964 7.964 0 012.911 2.911A7.826 7.826 0 0116 8z" fill="#868686" fill-opacity=".5"/></svg>
